X: 10080
T: NICKI'S JIG
C: Bob McQuillen 6 Nov 93
B: Bob's Note Book 10 #80
%R: jig
Z: 2020 John Chambers <jc:trillian.mit.edu>
M: 6/8
L: 1/8
K: D
B \
| AFA fed | Bcd ABA | GEF GAB | cAA AFG |\
| AFA fed | Bcd AFA | Bgf edc | d3- d2 :|
|: f \
| ecA fdA | gfg ecA | efg aba | gfg e2A |\
| BGB AFA | dBd AFA | dfa gec | edd d2 :|
%%begintext align
%% Here's a real old-fashioned
%% Irish jig for Nicki (Sullivan) Noonan to dance to when she's
%% running around the house being a good mummy to Ashley
%% and a lovely wife to James - Nicki's always been a favorite
%% of mine since her high school days at Conval, and so I'm glad
%% you have your own tune, Nicki - with much love from MAC
%%endtext

%%sep 1 1 500

%%sep 1 1 500

